X:2
T:Call Me
C:Tony Hatch
L:1/8
M:C
I:linebreak $
K:E
"E" B3 c d2 e2 | f2 e2 d2 c2 ||[K:D]"Em" z2 Bc d3 e |"A7" f2 e2 d2 c2 |"D" A3 B c2 d2 |
e2 d2 c2 B2 ||$[K:C]"Dm" z2 AB c3 d |"G7" e2 d2 c2 d2 |"C" d4 G4 |"Dm" (3d2 e2 d2"G7" (3c2 B2 c2 |
"C" d4 G4 |"Dm" (3d2 e2 d2"G7" (3c2 B2 c2 |$"C" d4 G4 |"Am" (3d2 e2 d2 (3c2 d2 c2 Ox///||1
[K:E]"Abm" B4"G7" z4 |"Gbm" z4"F7" z4 :|2[K:E]"Abm" B4"Gbm" z4 |"E" z4"Dbm" z BBB ||$
"Gbm" f4"B7" gBBB |"Gbm" f4"B7" g4 |"E" z2 ee"Gbm" ddcc |"Abm" B4"G7" z BBB |"Bbø" f4 gBBB |$
"Ao" f4 g4 |"Abm" z2 ee"Go" ddBB |"Gbm" f4"B7""_D.C. al Coda" z4 ||O"E" B4"D" z4 |
"E" z4"D" z4 |"E" z4"D" z4 |"E" z8 |]

